X: 1
T: Paddy Clancy's
M: 6/8
L: 1/8
R: jig
K: Dmaj
f|afd edc|dcB AFA|~d3 efg|fdf efg|
afd edc|dcB AFA|~d3 efg|fdc d2:|
|:e|~f3 ~g3|faf fed|~f3 ~g3|afd ede|
~f3 ~g3|faf fed|~f3 ede|fdc d2:|
